svg/Octicons/file-zip.svg

<svg xmlns="http://www.w3.org/2000/svg" viewBox="0 0 768 1024"><path d="m320 576v-64h-64v64h64m0-128v-64h-64v64h64m0-128v-64h-64v64h64m-128 64h64v-64h-64v64m384-320h-576v896h768v-704l-192-192m128 832h-640v-768h192v64h64v-64h192l192 192v576m-512-640h64v-64h-64v64m0 256h64v-64h-64v64m0 128l-64 64v128h256v-128l-64-64h-64v-64h-64v64m128 64v64h-128v-64h128"/></svg>

<svg height="1024" width="768" xmlns="http://www.w3.org/2000/svg">
  <path d="M320 576v-64h-64v64H320zM320 448v-64h-64v64H320zM320 320v-64h-64v64H320zM192 384h64v-64h-64V384zM576 64H0v896h768V256L576 64zM704 896H64V128h192v64h64v-64h192l192 192V896zM192 256h64v-64h-64V256zM192 512h64v-64h-64V512zM192 640l-64 64v128h256V704l-64-64h-64v-64h-64V640zM320 704v64H192v-64H320z" />
</svg>
